!!!COM: Fanny (Mendelssohn) Hensel
!!!CNT: Deutsch
!!!TXO: Deutsch
!!!OTL: "Abendbild"
!!!LYR: Lenau, Nikolaus
!!!OPR: 
!!!OPS: Op. 10
!!!ONM: No. 3
!!!ENC: Emily Thomas
!!!YOR: Hensel: Ausgewa2hlte Lieder fu2r Singstimme und Klavier
!!!YOR: Breitkopf & Hartel, 1994
!!!ODT: 1846/
!!NB: Vocal melody and text encoded.
**kern	**silbe
=1-	=1
*clefG2	*
*k[b-e-a-]	*
*M6/8	*
*MM[Andante con molto (Allegretto)]	*
2.r	.
=2	=2
2.r	.
=3	=3
{8.b-	{Fried-
16an	-li-
8b-	-cher
4ee-	A-
8b-	-bend
=4	=4
4g	senkt
8g	sich
4f	aufs
8e-	Ge-
=5	=5
4.b-	-fil-
4a-}	-de,}
8r	.
=6	=6
{4ff	{sanft
8a-	ent-
8.a-	-schlum-
16g	-mert
8a-	Na-
=7	=7
4b-	-tur,
8b-	um
4an	ih-
8b-	-re
=8	=8
4.ee-	Zu2-
4a-}	-ge}
8r	.
=9	=9
{4g	{schwebt
8f	der
8.en	Da2m-
16g	-me-
8b-	-rung
=10	=10
4.dd-	zar-
8cc	|
8a-	-te
8f	Ver-
=11	=11
4e-	-hu2l-
8d}	-lung,}
8r	.
{8dd	{und
8b-	sie
=12	=12
4.ee-	la2-
4f	-chelt,
8f	die
=13	=13
4.g-	hol-
4an	-de,
8cc	sie
=14	=14
4cc	la2-
8b-	-chelt,
4r	.
8d	die
=15	=15
4f	hol-
8e-}	-de;}
4r	.
8r	.
=16	=16
{8.b-	{la2-
16cc	-chelt,
8b-	ein
8b-	schlum-
8cc	|
8dd	-mernd
=17	=17
4ee-	Kind,
8dd	in
4cc	Va-
8g	-ters
=18	=18
4.b-	Ar-
4an}	-men,}
8r	.
=19	=19
{4dd	{der
8b-	voll
8.an	Lie-
16g	-be
8f#	zu
=20	=20
4dd	ihr
8b-	sich
4g}	neigt,}
{8f	{sein
=21	=21
4.f	go2tt-
4.en	-lich
=22	=22
4f	Au-
8g	-ge
8.a-	weilt
16g	|
8f	auf
=23	=23
8.cc}	ihr,}
{16b-	{und
8a-	es
4ff	weht
8ee-	wein
=24	=24
4.ee-	O-
4.dd	-dem
=25	=25
4.ee-	u2-
8cc-	|
8a-	-ber
8f	ihr
=26	=26
2.ee-	Ant-
=27	=27
4.d}	-litz.}
4r	.
8r	.
=28	=28
2.r	.
=29	=29
{8.b-	{Fried-
16an	-li-
8b-	-cher
4ee-	A-
8b-	-bend
=30	=30
4g	senkt
8g	sich
4f	aufs
8e-	Ge-
=31	=31
4.b-	-fil-
4.a-	-de,
=32	=32
4ff	sanft
8a-	ent-
8.a-	-schlum-
16g	-mert
8a-	Na-
=33	=33
4b-}	tur,}
{8b-	{um
4an	ih
8b-	-re
=34	=34
4.ee-	Zu-
4.a-	-ge
=35	=35
4g	schwebt
8f	der
8.en	Da2m-
16g	-me-
8b-	-rung
=36	=36
4.dd-	zar-
8cc	|
8a-	-te
8f	Ver-
=37	=37
4e-	hu2l-
8d}	-lung;}
8r	.
{8dd	{und
8b-	sie
=38	=38
4.ee-	la2-
4f	-chelt,
8f	die
=39	=39
4.g-	hol-
4an	-de,
8cc	sie
=40	=40
4cc	la2-
8b-}	-chelt,}
4r	.
{8d	{die
=41	=41
4f	hol-
8e-	-de,
4r	.
8e-	sie
=42	=42
2.ee-	la2-
=43	=43
4.b-	-chelt,
4r	.
8e-	die
=44	=44
2.a-	hol-
=45	=45
4.g}	-de!}
4r	.
8r	.
==	==
*-	*-
